; generated by Slic3r 1.33.8.devel on 2017-07-01 at 18:16:17

; 

; external perimeters extrusion width = 0.45mm
; perimeters extrusion width = 0.45mm
; infill extrusion width = 0.45mm
; solid infill extrusion width = 0.45mm
; top infill extrusion width = 0.40mm
; first layer extrusion width = 0.42mm

M115 U3.0.9 ; tell printer latest fw version
M83  ; extruder relative mode
M104 S200 ; set extruder temp
M140 S80 ; set bed temp
M190 S80 ; wait for bed temp
M109 S200 ; wait for extruder temp
G28 W ; home all without mesh bed level
G29
G1 Y-3.0 F1000.0 ; go outside pritn area
G1 X60.0 E9.0  F1000.0 ; intro line
G1 X100.0 E12.5  F1000.0 ; intro line
G21 ; set units to millimeters
G90 ; use absolute coordinates
M83 ; use relative distances for extrusion
G1 E-0.80000 F2100.00000
G1 Z0.200 F7200.000
G1 X72.627 Y87.220 F7200.000
G1 E0.80000 F2100.00000
M204 S1000
G1 F2100
G1 X73.831 Y86.219 E0.04164
G1 X76.175 Y84.720 E0.07400
G1 X78.283 Y83.778 E0.06142
G1 X80.218 Y83.186 E0.05383
G1 X81.766 Y82.886 E0.04194
G1 X84.539 Y82.703 E0.07392
G1 X86.193 Y82.807 E0.04408
G1 X121.749 Y87.192 E0.95292
G1 X123.664 Y87.589 E0.05203
G1 X125.945 Y88.486 E0.06518
G1 X127.705 Y89.568 E0.05497
G1 X129.059 Y90.702 E0.04699
G1 X129.963 Y91.667 E0.03515
G1 X130.448 Y92.280 E0.02080
G1 X131.402 Y93.757 E0.04677
G1 X132.260 Y95.666 E0.05568
G1 X132.741 Y97.374 E0.04721
G1 X132.942 Y98.666 E0.03476
G1 X132.998 Y99.452 E0.02096
G1 X132.954 Y101.206 E0.04668
G1 X132.589 Y103.267 E0.05568
G1 X132.025 Y104.950 E0.04721
G1 X131.472 Y106.113 E0.03425
G1 X131.061 Y106.821 E0.02177
G1 X129.965 Y108.330 E0.04962
G1 X128.693 Y109.637 E0.04851
G1 X127.629 Y110.490 E0.03628
G1 X126.075 Y111.445 E0.04851
G1 X125.363 Y111.791 E0.02107
G1 X123.665 Y112.411 E0.04808
G1 X122.307 Y112.724 E0.03707
G1 X86.194 Y117.193 E0.96788
G1 X84.669 Y117.293 E0.04065
G1 X82.411 Y117.197 E0.06012
G1 X80.276 Y116.828 E0.05766
G1 X78.191 Y116.190 E0.05799
G1 X76.257 Y115.322 E0.05639
G1 X73.913 Y113.844 E0.07370
G1 X72.169 Y112.344 E0.06119
G1 X70.798 Y110.833 E0.05427
G1 X69.875 Y109.569 E0.04165
G1 X68.527 Y107.135 E0.07400
G1 X67.721 Y104.980 E0.06120
G1 X67.249 Y103.004 E0.05404
G1 X67.047 Y101.440 E0.04195
G1 X67.038 Y98.664 E0.07382
G1 X67.371 Y96.384 E0.06130
G1 X67.910 Y94.425 E0.05404
G1 X68.484 Y92.961 E0.04185
G1 X69.815 Y90.521 E0.07392
G1 X71.205 Y88.682 E0.06130
G1 X72.585 Y87.263 E0.05267
G1 F5760
G1 X73.831 Y86.219 E-0.56286
G1 F5760
G1 X74.310 Y85.912 E-0.19714
G1 E-0.04000 F2100.00000
G1 X117.198 Y99.255 F7200.000
G1 E0.80000 F2100.00000
G1 F840
G1 X117.314 Y98.898 E0.01000
G1 X117.474 Y98.558 E0.01000
G1 X117.675 Y98.240 E0.01000
G1 X117.915 Y97.951 E0.01000
G1 X118.189 Y97.693 E0.01000
G1 X118.493 Y97.472 E0.01000
G1 X118.823 Y97.291 E0.01000
G1 X119.172 Y97.153 E0.01000
G1 X119.537 Y97.059 E0.01000
G1 X119.910 Y97.012 E0.01000
G1 X120.285 Y97.012 E0.01000
G1 X120.658 Y97.059 E0.01000
G1 X121.023 Y97.153 E0.01000
G1 X121.372 Y97.291 E0.01000
G1 X121.702 Y97.472 E0.01000
G1 X122.006 Y97.693 E0.01000
G1 X122.280 Y97.951 E0.01000
G1 X122.520 Y98.240 E0.01000
G1 X122.721 Y98.558 E0.01000
G1 X122.881 Y98.898 E0.01000
G1 X122.997 Y99.255 E0.01000
G1 X123.068 Y99.625 E0.01000
G1 X123.091 Y100.000 E0.01000
G1 X123.068 Y100.375 E0.01000
G1 X122.997 Y100.745 E0.01000
G1 X122.881 Y101.102 E0.01000
G1 X122.721 Y101.442 E0.01000
G1 X122.520 Y101.760 E0.01000
G1 X122.280 Y102.049 E0.01000
G1 X122.006 Y102.307 E0.01000
G1 X121.702 Y102.528 E0.01000
G1 X121.372 Y102.709 E0.01000
G1 X121.023 Y102.847 E0.01000
G1 X120.658 Y102.941 E0.01000
G1 X120.285 Y102.988 E0.01000
G1 X119.910 Y102.988 E0.01000
G1 X119.537 Y102.941 E0.01000
G1 X119.172 Y102.847 E0.01000
G1 X118.823 Y102.709 E0.01000
G1 X118.493 Y102.528 E0.01000
G1 X118.189 Y102.307 E0.01000
G1 X117.915 Y102.049 E0.01000
G1 X117.675 Y101.760 E0.01000
G1 X117.474 Y101.442 E0.01000
G1 X117.314 Y101.102 E0.01000
G1 X117.198 Y100.745 E0.01000
G1 X117.127 Y100.375 E0.01000
G1 X117.104 Y100.000 E0.01000
G1 X117.127 Y99.625 E0.01000
G1 X117.186 Y99.314 E0.00840
G1 X117.557 Y99.385 F7200.000
G1 F840
G1 X117.665 Y99.037 E0.00970
G1 X117.805 Y98.740 E0.00874
G1 X117.981 Y98.462 E0.00874
G1 X118.190 Y98.209 E0.00874
G1 X118.430 Y97.984 E0.00874
G1 X118.696 Y97.791 E0.00874
G1 X118.984 Y97.633 E0.00874
G1 X119.289 Y97.512 E0.00874
G1 X119.607 Y97.430 E0.00874
G1 X119.933 Y97.389 E0.00874
G1 X120.262 Y97.389 E0.00874
G1 X120.588 Y97.430 E0.00874
G1 X120.906 Y97.512 E0.00874
G1 X121.211 Y97.633 E0.00874
G1 X121.499 Y97.791 E0.00874
G1 X121.765 Y97.984 E0.00874
G1 X122.005 Y98.209 E0.00874
G1 X122.214 Y98.462 E0.00874
G1 X122.390 Y98.740 E0.00874
G1 X122.530 Y99.037 E0.00874
G1 X122.631 Y99.349 E0.00874
G1 X122.693 Y99.672 E0.00874
G1 X122.714 Y100.000 E0.00874
G1 X122.693 Y100.328 E0.00874
G1 X122.631 Y100.651 E0.00874
G1 X122.530 Y100.963 E0.00874
G1 X122.390 Y101.260 E0.00874
G1 X122.214 Y101.538 E0.00874
G1 X122.005 Y101.791 E0.00874
G1 X121.765 Y102.016 E0.00874
G1 X121.499 Y102.209 E0.00874
G1 X121.211 Y102.367 E0.00874
G1 X120.906 Y102.488 E0.00874
G1 X120.588 Y102.570 E0.00874
G1 X120.262 Y102.611 E0.00874
G1 X119.933 Y102.611 E0.00874
G1 X119.607 Y102.570 E0.00874
G1 X119.289 Y102.488 E0.00874
G1 X118.984 Y102.367 E0.00874
G1 X118.696 Y102.209 E0.00874
G1 X118.430 Y102.016 E0.00874
G1 X118.190 Y101.791 E0.00874
G1 X117.981 Y101.538 E0.00874
G1 X117.805 Y101.260 E0.00874
G1 X117.665 Y100.963 E0.00874
G1 X117.564 Y100.651 E0.00874
G1 X117.502 Y100.328 E0.00874
G1 X117.481 Y100.000 E0.00874
G1 X117.502 Y99.672 E0.00874
G1 X117.546 Y99.444 E0.00618
G1 X117.916 Y99.515 F7200.000
G1 F840
G1 X118.016 Y99.176 E0.00939
G1 X118.136 Y98.922 E0.00748
G1 X118.287 Y98.684 E0.00748
G1 X118.466 Y98.468 E0.00748
G1 X118.671 Y98.275 E0.00748
G1 X118.898 Y98.110 E0.00748
G1 X119.145 Y97.975 E0.00748
G1 X119.406 Y97.871 E0.00748
G1 X119.678 Y97.801 E0.00748
G1 X119.957 Y97.766 E0.00748
G1 X120.238 Y97.766 E0.00748
G1 X120.517 Y97.801 E0.00748
G1 X120.789 Y97.871 E0.00748
G1 X121.050 Y97.975 E0.00748
G1 X121.297 Y98.110 E0.00748
G1 X121.524 Y98.275 E0.00748
G1 X121.729 Y98.468 E0.00748
G1 X121.908 Y98.684 E0.00748
G1 X122.059 Y98.922 E0.00748
G1 X122.179 Y99.176 E0.00748
G1 X122.265 Y99.443 E0.00748
G1 X122.318 Y99.719 E0.00748
G1 X122.336 Y100.000 E0.00748
G1 X122.318 Y100.281 E0.00748
G1 X122.265 Y100.557 E0.00748
G1 X122.179 Y100.824 E0.00748
G1 X122.059 Y101.078 E0.00748
G1 X121.908 Y101.316 E0.00748
G1 X121.729 Y101.532 E0.00748
G1 X121.524 Y101.725 E0.00748
G1 X121.297 Y101.890 E0.00748
G1 X121.050 Y102.025 E0.00748
G1 X120.789 Y102.129 E0.00748
G1 X120.517 Y102.199 E0.00748
G1 X120.238 Y102.234 E0.00748
G1 X119.957 Y102.234 E0.00748
G1 X119.678 Y102.199 E0.00748
G1 X119.406 Y102.129 E0.00748
G1 X119.145 Y102.025 E0.00748
G1 X118.898 Y101.890 E0.00748
G1 X118.671 Y101.725 E0.00748
G1 X118.466 Y101.532 E0.00748
G1 X118.287 Y101.316 E0.00748
G1 X118.136 Y101.078 E0.00748
G1 X118.016 Y100.824 E0.00748
G1 X117.930 Y100.557 E0.00748
G1 X117.877 Y100.281 E0.00748
G1 X117.859 Y100.000 E0.00748
G1 X117.905 Y99.574 E0.01141
G1 X118.275 Y99.644 F7200.000
G1 F840
G1 X118.368 Y99.315 E0.00909
G1 X118.467 Y99.104 E0.00621
G1 X118.592 Y98.906 E0.00621
G1 X118.741 Y98.726 E0.00621
G1 X118.912 Y98.567 E0.00621
G1 X119.101 Y98.429 E0.00621
G1 X119.305 Y98.317 E0.00621
G1 X119.523 Y98.231 E0.00621
G1 X119.749 Y98.173 E0.00621
G1 X119.981 Y98.143 E0.00621
G1 X120.214 Y98.143 E0.00621
G1 X120.446 Y98.173 E0.00621
G1 X120.672 Y98.231 E0.00621
G1 X120.890 Y98.317 E0.00621
G1 X121.094 Y98.429 E0.00621
G1 X121.283 Y98.567 E0.00621
G1 X121.454 Y98.726 E0.00621
G1 X121.603 Y98.906 E0.00621
G1 X121.728 Y99.104 E0.00621
G1 X121.827 Y99.315 E0.00621
G1 X121.899 Y99.537 E0.00621
G1 X121.943 Y99.767 E0.00621
G1 X121.958 Y100.000 E0.00621
G1 X121.943 Y100.233 E0.00621
G1 X121.899 Y100.463 E0.00621
G1 X121.827 Y100.685 E0.00621
G1 X121.728 Y100.896 E0.00621
G1 X121.603 Y101.094 E0.00621
G1 X121.454 Y101.274 E0.00621
G1 X121.283 Y101.433 E0.00621
G1 X121.094 Y101.571 E0.00621
G1 X120.890 Y101.683 E0.00621
G1 X120.672 Y101.769 E0.00621
G1 X120.446 Y101.827 E0.00621
G1 X120.214 Y101.857 E0.00621
G1 X119.981 Y101.857 E0.00621
G1 X119.749 Y101.827 E0.00621
G1 X119.523 Y101.769 E0.00621
G1 X119.305 Y101.683 E0.00621
G1 X119.101 Y101.571 E0.00621
G1 X118.912 Y101.433 E0.00621
G1 X118.741 Y101.274 E0.00621
G1 X118.592 Y101.094 E0.00621
G1 X118.467 Y100.896 E0.00621
G1 X118.368 Y100.685 E0.00621
G1 X118.296 Y100.463 E0.00621
G1 X118.252 Y100.233 E0.00621
G1 X118.237 Y100.000 E0.00621
G1 X118.264 Y99.703 E0.00793
G1 X118.018 Y99.419 F7200.000
G1 F5760
G1 X118.368 Y99.315 E-0.13913
G1 F5760
G1 X118.467 Y99.104 E-0.08092
G1 F5760
G1 X118.592 Y98.906 E-0.08092
G1 F5760
G1 X118.741 Y98.726 E-0.08092
G1 F5760
G1 X118.912 Y98.567 E-0.08092
G1 F5760
G1 X119.101 Y98.429 E-0.08092
G1 F5760
G1 X119.305 Y98.317 E-0.08092
G1 F5760
G1 X119.523 Y98.231 E-0.08092
G1 F5760
G1 X119.675 Y98.192 E-0.05443
G1 E-0.04000 F2100.00000
G1 X112.547 Y98.110 F7200.000
G1 E0.80000 F2100.00000
G1 F1680
G1 X112.864 Y97.136 E0.02725
G1 X113.280 Y96.252 E0.02599
G1 X113.803 Y95.427 E0.02599
G1 X114.426 Y94.674 E0.02599
G1 X115.076 Y94.064 E0.02371
G1 X115.841 Y93.479 E0.02561
G1 X116.785 Y92.960 E0.02865
G1 X117.693 Y92.601 E0.02599
G1 X118.640 Y92.358 E0.02599
G1 X119.609 Y92.235 E0.02599
G1 X120.586 Y92.235 E0.02599
G1 X121.555 Y92.358 E0.02599
G1 X122.502 Y92.601 E0.02599
G1 X123.410 Y92.960 E0.02599
G1 X124.354 Y93.479 E0.02865
G1 X125.119 Y94.064 E0.02561
G1 X125.769 Y94.674 E0.02371
G1 X126.392 Y95.427 E0.02599
G1 X126.915 Y96.252 E0.02599
G1 X127.331 Y97.136 E0.02599
G1 X127.648 Y98.110 E0.02726
G1 X127.819 Y99.065 E0.02580
G1 X127.878 Y100.000 E0.02491
G1 X127.819 Y100.935 E0.02492
G1 X127.648 Y101.890 E0.02580
G1 X127.331 Y102.864 E0.02726
G1 X126.915 Y103.748 E0.02599
G1 X126.392 Y104.573 E0.02599
G1 X125.769 Y105.326 E0.02599
G1 X125.119 Y105.936 E0.02371
G1 X124.354 Y106.521 E0.02561
G1 X123.410 Y107.040 E0.02865
G1 X122.502 Y107.399 E0.02599
G1 X121.555 Y107.642 E0.02599
G1 X120.586 Y107.765 E0.02599
G1 X119.609 Y107.765 E0.02599
G1 X118.640 Y107.642 E0.02599
G1 X117.693 Y107.399 E0.02599
G1 X116.785 Y107.040 E0.02599
G1 X115.841 Y106.521 E0.02865
G1 X115.076 Y105.936 E0.02561
G1 X114.426 Y105.326 E0.02371
G1 X113.803 Y104.573 E0.02599
G1 X113.280 Y103.748 E0.02599
G1 X112.864 Y102.864 E0.02599
G1 X112.547 Y101.890 E0.02726
G1 X112.376 Y100.935 E0.02580
G1 X112.317 Y100.000 E0.02491
G1 X112.376 Y99.065 E0.02491
G1 X112.536 Y98.169 E0.02421
G1 X112.165 Y98.103 F7200.000
G1 F1680
G1 X112.512 Y96.997 E0.03084
G1 X112.949 Y96.070 E0.02725
G1 X113.498 Y95.205 E0.02725
G1 X114.151 Y94.415 E0.02725
G1 X114.832 Y93.776 E0.02485
G1 X115.634 Y93.162 E0.02688
G1 X116.624 Y92.618 E0.03004
G1 X117.576 Y92.241 E0.02725
G1 X118.569 Y91.986 E0.02725
G1 X119.585 Y91.858 E0.02725
G1 X120.610 Y91.858 E0.02725
G1 X121.626 Y91.986 E0.02725
G1 X122.618 Y92.241 E0.02725
G1 X123.571 Y92.618 E0.02725
G1 X124.561 Y93.162 E0.03004
G1 X125.363 Y93.776 E0.02688
G1 X126.044 Y94.415 E0.02485
G1 X126.697 Y95.205 E0.02725
G1 X127.246 Y96.070 E0.02725
G1 X127.683 Y96.997 E0.02725
G1 X128.015 Y98.018 E0.02857
G1 X128.194 Y99.020 E0.02706
G1 X128.256 Y100.000 E0.02612
G1 X128.194 Y100.980 E0.02612
G1 X128.015 Y101.982 E0.02706
G1 X127.683 Y103.003 E0.02858
G1 X127.246 Y103.930 E0.02725
G1 X126.697 Y104.795 E0.02725
G1 X126.044 Y105.585 E0.02725
G1 X125.363 Y106.224 E0.02485
G1 X124.561 Y106.838 E0.02688
G1 X123.571 Y107.382 E0.03004
G1 X122.618 Y107.759 E0.02725
G1 X121.626 Y108.014 E0.02725
G1 X120.610 Y108.142 E0.02725
G1 X119.585 Y108.142 E0.02725
G1 X118.569 Y108.014 E0.02725
G1 X117.577 Y107.759 E0.02725
G1 X116.624 Y107.382 E0.02725
G1 X115.634 Y106.838 E0.03004
G1 X114.832 Y106.224 E0.02687
G1 X114.151 Y105.585 E0.02485
G1 X113.498 Y104.795 E0.02725
G1 X112.949 Y103.930 E0.02725
G1 X112.512 Y103.003 E0.02725
G1 X112.180 Y101.982 E0.02857
G1 X112.001 Y100.980 E0.02706
G1 X111.939 Y100.000 E0.02612
G1 X112.001 Y99.020 E0.02612
G1 X112.155 Y98.162 E0.02318
G1 X111.784 Y98.096 F7200.000
G1 F1680
G1 X111.792 Y97.993 E0.00274
G1 X112.161 Y96.858 E0.03175
G1 X112.648 Y95.824 E0.03039
G1 X113.339 Y94.751 E0.03394
G1 X113.368 Y94.770 E0.00092
G1 X113.875 Y94.157 E0.02115
G1 X114.380 Y93.682 E0.01843
G1 X114.363 Y93.659 E0.00077
G1 X115.373 Y92.876 E0.03398
G1 X116.463 Y92.276 E0.03310
G1 X117.478 Y91.875 E0.02904
G1 X118.714 Y91.560 E0.03393
G1 X118.722 Y91.587 E0.00075
G1 X119.562 Y91.481 E0.02252
G1 X120.633 Y91.481 E0.02851
G1 X121.473 Y91.587 E0.02252
G1 X121.481 Y91.560 E0.00075
G1 X122.717 Y91.875 E0.03393
G1 X123.732 Y92.276 E0.02904
G1 X124.822 Y92.876 E0.03310
G1 X125.832 Y93.659 E0.03398
G1 X125.815 Y93.682 E0.00077
G1 X126.320 Y94.157 E0.01843
G1 X126.827 Y94.770 E0.02115
G1 X126.856 Y94.751 E0.00092
G1 X127.547 Y95.824 E0.03394
G1 X128.034 Y96.858 E0.03039
G1 X128.403 Y97.993 E0.03175
G1 X128.618 Y99.251 E0.03396
G1 X128.587 Y99.257 E0.00086
G1 X128.633 Y100.000 E0.01979
G1 X128.587 Y100.743 E0.01979
G1 X128.618 Y100.749 E0.00086
G1 X128.403 Y102.007 E0.03396
G1 X128.034 Y103.142 E0.03175
G1 X127.547 Y104.176 E0.03039
G1 X126.856 Y105.249 E0.03394
G1 X126.827 Y105.230 E0.00092
G1 X126.320 Y105.843 E0.02115
G1 X125.815 Y106.318 E0.01843
G1 X125.832 Y106.341 E0.00077
G1 X124.822 Y107.124 E0.03398
G1 X123.732 Y107.724 E0.03310
G1 X122.717 Y108.125 E0.02904
G1 X121.481 Y108.440 E0.03393
G1 X121.473 Y108.413 E0.00075
G1 X120.633 Y108.519 E0.02252
G1 X119.562 Y108.519 E0.02851
G1 X118.722 Y108.413 E0.02252
G1 X118.714 Y108.440 E0.00075
G1 X117.478 Y108.125 E0.03393
G1 X116.463 Y107.724 E0.02903
G1 X115.373 Y107.124 E0.03310
G1 X114.363 Y106.341 E0.03398
G1 X114.380 Y106.318 E0.00077
G1 X113.875 Y105.843 E0.01843
G1 X113.368 Y105.230 E0.02115
G1 X113.339 Y105.249 E0.00092
G1 X112.648 Y104.176 E0.03394
G1 X112.161 Y103.142 E0.03039
G1 X111.792 Y102.007 E0.03175
G1 X111.577 Y100.749 E0.03396
G1 X111.608 Y100.743 E0.00086
G1 X111.562 Y100.000 E0.01979
G1 X111.608 Y99.257 E0.01979
G1 X111.577 Y99.251 E0.00086
G1 X111.773 Y98.155 E0.02963
G1 X111.374 Y98.245 F7200.000
G1 F1260
G1 X110.018 Y97.764 E0.03825
G1 X110.046 Y97.641 E0.00336
G1 X111.460 Y97.795 E0.03783
G1 X111.731 Y96.963 E0.02327
G1 X110.464 Y96.287 E0.03818
G1 X110.510 Y96.169 E0.00336
G1 X111.896 Y96.535 E0.03813
G1 X112.269 Y95.744 E0.02327
G1 X111.125 Y94.893 E0.03792
G1 X111.188 Y94.783 E0.00336
G1 X112.510 Y95.354 E0.03829
G1 X112.980 Y94.613 E0.02332
G1 X111.986 Y93.612 E0.03751
G1 X112.065 Y93.514 E0.00336
G1 X113.288 Y94.275 E0.03831
G1 X113.600 Y93.898 E0.01302
G1 X113.879 Y93.636 E0.01019
G1 X113.029 Y92.475 E0.03827
G1 X113.122 Y92.389 E0.00336
G1 X114.200 Y93.310 E0.03771
G1 X114.896 Y92.778 E0.02330
G1 X114.230 Y91.505 E0.03820
G1 X114.334 Y91.434 E0.00336
G1 X115.263 Y92.506 E0.03773
G1 X116.031 Y92.084 E0.02329
G1 X115.561 Y90.726 E0.03823
G1 X115.675 Y90.671 E0.00336
G1 X116.441 Y91.880 E0.03807
G1 X117.254 Y91.558 E0.02326
G1 X116.994 Y90.153 E0.03800
G1 X117.115 Y90.116 E0.00336
G1 X117.695 Y91.432 E0.03826
G1 X118.544 Y91.214 E0.02330
G1 X118.496 Y89.801 E0.03762
G1 X118.621 Y89.782 E0.00336
G1 X119.000 Y91.172 E0.03832
G1 X119.538 Y91.104 E0.01443
G1 X119.868 Y91.104 E0.00878
G1 X120.034 Y89.676 E0.03824
G1 X120.161 Y89.676 E0.00336
G1 X120.327 Y91.104 E0.03824
G1 X120.657 Y91.104 E0.00878
G1 X121.195 Y91.172 E0.01443
G1 X121.574 Y89.782 E0.03832
G1 X121.699 Y89.801 E0.00336
G1 X121.651 Y91.214 E0.03762
G1 X122.500 Y91.432 E0.02330
G1 X123.080 Y90.116 E0.03826
G1 X123.201 Y90.153 E0.00336
G1 X122.941 Y91.558 E0.03800
G1 X123.754 Y91.880 E0.02326
G1 X124.520 Y90.671 E0.03807
G1 X124.634 Y90.726 E0.00336
G1 X124.164 Y92.084 E0.03823
G1 X124.932 Y92.506 E0.02329
G1 X125.861 Y91.434 E0.03773
G1 X125.965 Y91.505 E0.00336
G1 X125.299 Y92.778 E0.03820
G1 X125.995 Y93.310 E0.02330
G1 X127.073 Y92.389 E0.03771
G1 X127.166 Y92.475 E0.00336
G1 X126.316 Y93.636 E0.03827
G1 X126.595 Y93.898 E0.01019
G1 X126.907 Y94.275 E0.01302
G1 X128.130 Y93.514 E0.03831
G1 X128.209 Y93.612 E0.00336
G1 X127.215 Y94.613 E0.03751
G1 X127.685 Y95.354 E0.02332
