; generated by Slic3r 1.2.9 on 2017-07-12 at 14:20:04

; external perimeters extrusion width = 0.40mm
; perimeters extrusion width = 0.67mm
; infill extrusion width = 0.67mm
; solid infill extrusion width = 0.67mm
; top infill extrusion width = 0.67mm

M107
M115 U3.0.9 ; tell printer latest fw version
M83  ; extruder relative mode
M104 S230 ; set extruder temp
M140 S70 ; set bed temp
M190 S70 ; wait for bed temp
M109 S230 ; wait for extruder temp
G28 W ; home all without mesh bed level

G1 Y-3.0 F1000.0 ; go outside pritn area
G1 X60.0 E9.0  F1000.0 ; intro line
G1 X100.0 E12.5  F1000.0 ; intro line
G21 ; set units to millimeters
G90 ; use absolute coordinates
M82 ; use absolute distances for extrusion
G92 E0
G1 Z0.350 F7800.000
G1 E-2.00000 F2400.00000
G92 E0
G1 X81.866 Y92.208 F7800.000
G1 E2.00000 F2400.00000
G1 X89.910 Y86.024 E3.10365 F1800.000
G1 X91.051 Y85.259 E3.25307
G1 X91.566 Y84.955 E3.31818
G1 X92.423 Y84.501 E3.42369
G1 X93.412 Y84.050 E3.54190
G1 X94.493 Y83.639 E3.66771
G1 X95.485 Y83.332 E3.78064
G1 X96.427 Y83.100 E3.88616
G1 X97.635 Y82.881 E4.01968
G1 X98.688 Y82.765 E4.13496
G1 X99.867 Y82.709 E4.26340
G1 X100.419 Y82.712 E4.32343
G1 X101.249 Y82.745 E4.41372 F1800.000
G1 X101.845 Y82.796 E4.47883
G1 X103.110 Y82.971 E4.61772
G1 X103.833 Y83.117 E4.69797
G1 X104.541 Y83.289 E4.77722
G1 X105.606 Y83.609 E4.89825
G1 X106.539 Y83.953 E5.00640
G1 X107.764 Y84.501 E5.15231
G1 X108.296 Y84.776 E5.21742
G1 X108.962 Y85.153 E5.30069
G1 X109.880 Y85.743 E5.41948
G1 X110.826 Y86.438 E5.54712
G1 X118.174 Y92.181 E6.56157
G1 X119.709 Y93.885 E6.81105
G1 X120.571 Y96.010 E7.06053
G1 X120.719 Y97.401 E7.21268
G1 X120.719 Y103.401 E7.86534
G1 X120.322 Y105.660 E8.11482
G1 X119.179 Y107.648 E8.36430
G1 X117.809 Y108.886 E8.56509
G1 X109.451 Y114.543 E9.66299
G1 X108.621 Y115.045 E9.76851
G1 X107.764 Y115.499 E9.87403
G1 X107.102 Y115.810 E9.95359
G1 X106.097 Y116.217 E10.07150
G1 X105.694 Y116.361 E10.11807
G1 X104.702 Y116.668 E10.23100
G1 X104.123 Y116.817 E10.29611
G1 X103.173 Y117.017 E10.40162
G1 X102.552 Y117.119 E10.47006
G1 X101.499 Y117.235 E10.58533
G1 X101.048 Y117.266 E10.63454
G1 X99.908 Y117.292 E10.75859
G1 X98.938 Y117.255 E10.86411
G1 X98.342 Y117.204 E10.92922
G1 X97.077 Y117.029 E11.06811
G1 X96.354 Y116.883 E11.14835
G1 X95.646 Y116.711 E11.22760
G1 X94.581 Y116.391 E11.34863
G1 X93.648 Y116.047 E11.45678
G1 X92.758 Y115.660 E11.56230
G1 X91.608 Y115.069 E11.70295
G1 X90.921 Y114.660 E11.78996
G1 X82.277 Y109.001 E12.91374
G1 X80.605 Y107.432 E13.16322
G1 X79.568 Y105.386 E13.41270
G1 X79.281 Y103.458 E13.62474
G1 X79.281 Y97.458 E14.27741
G1 X79.678 Y95.200 E14.52688
G1 X80.821 Y93.211 E14.77636
G1 X81.823 Y92.249 E14.92741
G1 E12.92741 F2400.00000
G92 E0
G1 X106.216 Y107.525 F7800.000
G1 E2.00000 F2400.00000
G1 X105.706 Y107.913 E2.06967 F1800.000
G1 X105.111 Y108.300 E2.14690
G1 X104.303 Y108.741 E2.24709
G1 X103.346 Y109.140 E2.35980
G1 X102.780 Y109.322 E2.42454
G1 X102.252 Y109.458 E2.48378
G1 X101.715 Y109.565 E2.54339
G1 X100.758 Y109.679 E2.64816
G1 X100.095 Y109.701 E2.72041
G1 X99.550 Y109.686 E2.77972
G1 X99.004 Y109.640 E2.83926
G1 X98.122 Y109.499 E2.93646
G1 X97.477 Y109.342 E3.00871
G1 X96.890 Y109.157 E3.07560
G1 X96.381 Y108.963 E3.13486
G1 X95.881 Y108.739 E3.19445
G1 X95.055 Y108.291 E3.29670
G1 X94.500 Y107.926 E3.36894
G1 X94.045 Y107.585 E3.43078
G1 X93.627 Y107.232 E3.49032
G1 X93.005 Y106.623 E3.58500
G1 X92.568 Y106.123 E3.65724
G1 X92.182 Y105.615 E3.72666
G1 X91.879 Y105.161 E3.78595
G1 X91.603 Y104.693 E3.84514
G1 X91.351 Y104.205 E3.90482
G1 X90.953 Y103.252 E4.01715
G1 X90.756 Y102.632 E4.08794
G1 X90.581 Y101.907 E4.16912
G1 X90.496 Y101.418 E4.22308
G1 X90.414 Y100.660 E4.30600
G1 X90.397 Y99.670 E4.41366
G1 X90.453 Y98.917 E4.49582
G1 X90.505 Y98.526 E4.53869
G1 X90.621 Y97.905 E4.60744
G1 X90.752 Y97.382 E4.66612
G1 X90.936 Y96.796 E4.73289
G1 X91.131 Y96.287 E4.79216
G1 X91.354 Y95.787 E4.85174
G1 X91.803 Y94.961 E4.95399
G1 X92.167 Y94.406 E5.02624
G1 X92.509 Y93.951 E5.08808
G1 X92.862 Y93.533 E5.14762
G1 X93.470 Y92.911 E5.24229
G1 X93.971 Y92.475 E5.31454
G1 X94.479 Y92.088 E5.38395
G1 X94.932 Y91.786 E5.44324
G1 X95.401 Y91.509 E5.50243
G1 X95.888 Y91.257 E5.56212
G1 X96.841 Y90.860 E5.67439
G1 X97.407 Y90.678 E5.73913
G1 X97.937 Y90.541 E5.79867
G1 X98.774 Y90.389 E5.89112
G1 X99.628 Y90.314 E5.98443
G1 X100.092 Y90.299 E6.03497 F1800.000
G1 X100.637 Y90.314 E6.09428
G1 X101.180 Y90.360 E6.15348
G1 X101.723 Y90.436 E6.21314
G1 X102.707 Y90.657 E6.32291
G1 X103.297 Y90.843 E6.39015
G1 X103.806 Y91.037 E6.44941
G1 X104.306 Y91.261 E6.50900
G1 X105.132 Y91.709 E6.61125
G1 X105.687 Y92.074 E6.68350
G1 X106.142 Y92.415 E6.74533
G1 X106.560 Y92.768 E6.80488
G1 X107.182 Y93.377 E6.89955
G1 X107.619 Y93.877 E6.97180
G1 X108.005 Y94.385 E7.04121
G1 X108.308 Y94.839 E7.10050
G1 X108.584 Y95.307 E7.15969
G1 X108.836 Y95.795 E7.21938
G1 X109.235 Y96.750 E7.33197
G1 X109.500 Y97.626 E7.43154
G1 X109.658 Y98.376 E7.51492
G1 X109.767 Y99.256 E7.61138
G1 X109.795 Y99.998 E7.69216
G1 X109.780 Y100.546 E7.75178
G1 X109.705 Y101.320 E7.83632
G1 X109.599 Y101.940 E7.90480
G1 X109.472 Y102.483 E7.96542
G1 X109.279 Y103.123 E8.03817
G1 X109.057 Y103.712 E8.10661
G1 X108.833 Y104.213 E8.16628
G1 X108.384 Y105.039 E8.26853
G1 X108.020 Y105.594 E8.34077
G1 X107.679 Y106.049 E8.40261
G1 X107.325 Y106.467 E8.46215
G1 X106.717 Y107.089 E8.55683
G1 X106.261 Y107.486 E8.62255
G1 X106.275 Y107.921 F7800.000
G1 E6.62255 F2400.00000
G92 E0
G1 X90.064 Y102.426 F7800.000
G1 E2.00000 F2400.00000
G1 X89.725 Y102.483 E2.03731 F1800.000
G1 X89.381 Y102.483 E2.07480
G1 X89.381 Y98.433 E2.51538
G1 X89.887 Y98.433 E2.57041
G1 X89.831 Y98.853 E2.61647
G1 X89.772 Y99.653 E2.70371
G1 X89.790 Y100.699 E2.81752
G1 X89.877 Y101.505 E2.90572
G1 X89.969 Y102.033 E2.96404
G1 X90.050 Y102.368 E3.00149
G1 E1.00149 F2400.00000
G92 E0
G1 X110.127 Y102.426 F7800.000
G1 E2.00000 F2400.00000
G1 X110.276 Y101.688 E2.08188 F1800.000
G1 X110.619 Y101.717 E2.11936
G1 X110.619 Y102.426 E2.19646
G1 X110.187 Y102.426 E2.24347
G1 X109.968 Y103.051 F7800.000
G1 X109.732 Y103.708 E2.31944 F1800.000
G1 X109.392 Y104.475 E2.41066
G1 X108.910 Y105.364 E2.52073
G1 X108.524 Y105.952 E2.59720
G1 X108.162 Y106.434 E2.66283
G1 X107.788 Y106.877 E2.72578
G1 X107.394 Y107.294 E2.78831
G1 X106.604 Y108.007 E2.90404
G1 X106.065 Y108.417 E2.97770
G1 X105.584 Y108.738 E3.04058
G1 X105.085 Y109.032 E3.10354
G1 X104.207 Y109.464 E3.21001
G1 X103.549 Y109.724 E3.28701
G1 X102.950 Y109.917 E3.35543
G1 X102.393 Y110.060 E3.41805
G1 X101.497 Y110.224 E3.51707
G1 X100.798 Y110.296 E3.59354
G1 X100.094 Y110.320 E3.67010
G1 X99.377 Y110.292 E3.74817
G1 X98.938 Y110.255 E3.79611
G1 X98.363 Y110.174 E3.85926
G1 X97.997 Y110.105 E3.89984
G1 X97.309 Y109.937 E3.97684
G1 X96.685 Y109.740 E4.04804
G1 X96.144 Y109.534 E4.11094
G1 X95.619 Y109.299 E4.17351
G1 X94.729 Y108.816 E4.28367
G1 X94.142 Y108.430 E4.36013
G1 X93.659 Y108.068 E4.42577
G1 X93.217 Y107.695 E4.48871
G1 X92.799 Y107.300 E4.55124
G1 X92.086 Y106.510 E4.66697
G1 X91.677 Y105.971 E4.74063
G1 X91.355 Y105.490 E4.80351
G1 X91.061 Y104.992 E4.86647
G1 X90.795 Y104.476 E4.92961
G1 X90.630 Y104.115 E4.97283
G1 X90.213 Y103.035 E5.09876
G1 X89.778 Y103.108 E5.14674
G1 X88.756 Y103.108 E5.25789
G1 X88.756 Y97.808 E5.83442
G1 X89.973 Y97.808 E5.96684
G1 X90.353 Y96.591 E6.10561
G1 X90.559 Y96.051 E6.16846
G1 X90.794 Y95.526 E6.23103
G1 X91.278 Y94.636 E6.34119
G1 X91.663 Y94.048 E6.41765
G1 X92.025 Y93.566 E6.48329
G1 X92.397 Y93.126 E6.54590
G1 X93.051 Y92.457 E6.64771
G1 X93.581 Y91.995 E6.72418
G1 X94.122 Y91.583 E6.79816
G1 X94.603 Y91.262 E6.86104
G1 X95.099 Y90.970 E6.92363
G1 X95.984 Y90.534 E7.03100
G1 X96.638 Y90.276 E7.10747
G1 X97.237 Y90.083 E7.17589
G1 X97.797 Y89.939 E7.23881
G1 X98.361 Y89.827 E7.30136
G1 X99.390 Y89.704 E7.41410
G1 X100.233 Y89.684 E7.50578
G1 X100.672 Y89.696 E7.55358
G1 X101.249 Y89.745 E7.61655
G1 X102.190 Y89.895 E7.72026
G1 X102.878 Y90.063 E7.79726
G1 X103.501 Y90.259 E7.86826
G1 X104.169 Y90.522 E7.94637
G1 X104.571 Y90.702 E7.99431
G1 X105.087 Y90.968 E8.05741
G1 X105.454 Y91.181 E8.10356
G1 X106.045 Y91.570 E8.18056
G1 X106.528 Y91.932 E8.24620
G1 X106.968 Y92.303 E8.30882
G1 X107.637 Y92.958 E8.41062
G1 X108.099 Y93.487 E8.48709
G1 X108.510 Y94.029 E8.56107
G1 X108.832 Y94.510 E8.62395
G1 X109.124 Y95.005 E8.68654
G1 X109.560 Y95.891 E8.79392
G1 X109.818 Y96.546 E8.87054
G1 X110.076 Y97.325 E8.95980
G1 X110.172 Y97.751 E9.00726
G1 X111.244 Y97.751 E9.12390
G1 X111.244 Y103.051 E9.70042
G1 X110.028 Y103.051 E9.83272
G1 X109.578 Y102.960 F7800.000
G1 X112.944 Y103.051 F7800.000
G1 X112.944 Y97.751 E10.40924 F1800.000
G1 X113.744 Y97.751 E10.49626
G1 X113.744 Y103.051 E11.07279
G1 X113.004 Y103.051 E11.15328
G1 X113.144 Y102.704 F7800.000
G1 E9.15328 F2400.00000
G92 E0
G1 X87.056 Y103.108 F7800.000
G1 E2.00000 F2400.00000
G1 X86.256 Y103.108 E2.08702 F1800.000
G1 X86.256 Y97.808 E2.66355
G1 X87.056 Y97.808 E2.75057
G1 X87.056 Y103.048 E3.32057
G1 X86.709 Y102.908 F7800.000
G1 X86.656 Y102.796 F7800.000
G1 X86.656 Y98.121 E3.82911 F1800.000
G1 E1.82911 F2400.00000
G92 E0
G1 X110.435 Y98.063 F7800.000
G1 E2.00000 F2400.00000
G1 X110.503 Y99.179 E2.25776 F1800.000
G1 X110.519 Y99.981 E2.44278
G1 X110.473 Y101.391 E2.76821
G1 E0.76821 F2400.00000
G92 E0
G1 X113.344 Y102.738 F7800.000
G1 E2.00000 F2400.00000
G1 X113.344 Y98.063 E2.50855 F1800.000
G1 Z0.550 F7800.000
G1 E0.50855 F2400.00000
G92 E0
G1 X87.206 Y102.658 F7800.000
G1 E2.00000 F2400.00000
G1 X87.206 Y98.258 E2.15629 F900.000
G1 X88.606 Y98.258 E2.20601
G1 X88.606 Y102.658 E2.36230
G1 X87.266 Y102.658 E2.40989
G1 X86.806 Y102.658 F7800.000
G1 E0.40989 F2400.00000
G92 E0
G1 X90.757 Y101.874 F7800.000
G1 E2.00000 F2400.00000
G1 X90.672 Y101.389 E2.03073 F3600.000
G1 X90.592 Y100.646 E2.07748
G1 X90.576 Y99.679 E2.13793
G1 X90.630 Y98.940 E2.18420
G1 X90.681 Y98.551 E2.20872
G1 X90.795 Y97.945 E2.24731
G1 X90.924 Y97.429 E2.28050
G1 X91.105 Y96.856 E2.31807
G1 X91.295 Y96.356 E2.35154
G1 X91.517 Y95.862 E2.38537
G1 X91.954 Y95.056 E2.44265
G1 X92.313 Y94.510 E2.48351
G1 X92.648 Y94.063 E2.51842
G1 X92.997 Y93.650 E2.55220
G1 X93.591 Y93.043 E2.60529
G1 X94.083 Y92.613 E2.64615
G1 X94.581 Y92.234 E2.68526
G1 X95.027 Y91.937 E2.71875
G1 X95.487 Y91.665 E2.75213
G1 X95.970 Y91.416 E2.78607
G1 X96.897 Y91.029 E2.84887
G1 X97.456 Y90.849 E2.88560
G1 X97.980 Y90.714 E2.91939
G1 X98.793 Y90.566 E2.97108
G1 X99.444 Y90.499 E3.01193
G1 X100.619 Y90.491 E3.08540 F3600.000
G1 X101.160 Y90.537 E3.11931
G1 X101.697 Y90.613 E3.15322
G1 X102.656 Y90.828 E3.21464
G1 X103.238 Y91.011 E3.25275
G1 X103.738 Y91.202 E3.28622
G1 X104.232 Y91.423 E3.32005
G1 X105.037 Y91.861 E3.37733
G1 X105.584 Y92.219 E3.41819
G1 X106.031 Y92.554 E3.45310
G1 X106.444 Y92.903 E3.48689
G1 X107.051 Y93.497 E3.53998
G1 X107.480 Y93.990 E3.58083
G1 X107.859 Y94.488 E3.61994
G1 X108.157 Y94.933 E3.65343
G1 X108.428 Y95.394 E3.68682
G1 X108.677 Y95.876 E3.72076
G1 X109.066 Y96.809 E3.78391
G1 X109.327 Y97.668 E3.84006
G1 X109.483 Y98.407 E3.88723
G1 X109.589 Y99.269 E3.94149
G1 X109.617 Y99.996 E3.98701
G1 X109.601 Y100.538 E4.02089
G1 X109.528 Y101.294 E4.06835
G1 X109.424 Y101.904 E4.10702
G1 X109.299 Y102.438 E4.14131
G1 X109.110 Y103.065 E4.18225
G1 X108.892 Y103.643 E4.22083
G1 X108.670 Y104.138 E4.25476
G1 X108.233 Y104.944 E4.31204
G1 X107.875 Y105.490 E4.35289
G1 X107.539 Y105.937 E4.38781
G1 X107.190 Y106.350 E4.42159
G1 X106.596 Y106.957 E4.47468
G1 X106.104 Y107.387 E4.51553
G1 X105.606 Y107.766 E4.55465
G1 X105.160 Y108.063 E4.58814
G1 X104.700 Y108.335 E4.62152
G1 X104.217 Y108.584 E4.65546
G1 X103.290 Y108.971 E4.71825
G1 X102.731 Y109.151 E4.75499
G1 X102.213 Y109.284 E4.78843
G1 X101.681 Y109.390 E4.82229
G1 X100.749 Y109.501 E4.88097
G1 X100.096 Y109.523 E4.92182
G1 X99.560 Y109.508 E4.95534
G1 X99.021 Y109.463 E4.98912
G1 X98.160 Y109.325 E5.04361
G1 X97.525 Y109.170 E5.08446
G1 X96.949 Y108.989 E5.12218
G1 X96.449 Y108.798 E5.15564
G1 X95.955 Y108.577 E5.18947
G1 X95.150 Y108.139 E5.24676
G1 X94.603 Y107.781 E5.28761
G1 X94.156 Y107.446 E5.32253
G1 X93.743 Y107.097 E5.35631
G1 X93.136 Y106.503 E5.40940
G1 X92.707 Y106.010 E5.45025
G1 X92.328 Y105.512 E5.48936
G1 X92.030 Y105.067 E5.52285
G1 X91.759 Y104.606 E5.55624
G1 X91.510 Y104.124 E5.59018
G1 X91.122 Y103.196 E5.65303
G1 X90.927 Y102.583 E5.69323
G1 X90.771 Y101.932 E5.73507
G1 X91.239 Y101.774 F7800.000
G1 X91.161 Y101.321 E5.76382 F3600.000
G1 X91.084 Y100.615 E5.80817
G1 X91.069 Y99.692 E5.86584
G1 X91.120 Y98.991 E5.90981
G1 X91.277 Y98.050 E5.96943
G1 X91.398 Y97.563 E6.00078
G1 X91.570 Y97.018 E6.03652
G1 X91.751 Y96.544 E6.06820
G1 X91.959 Y96.080 E6.09998
G1 X92.377 Y95.309 E6.15480
G1 X92.716 Y94.793 E6.19340
G1 X93.033 Y94.370 E6.22646
G1 X93.361 Y93.982 E6.25823
G1 X93.929 Y93.401 E6.30897
G1 X94.395 Y92.995 E6.34757
G1 X94.868 Y92.636 E6.38471
G1 X95.289 Y92.354 E6.41640
G1 X95.726 Y92.097 E6.44805
G1 X96.178 Y91.863 E6.47987
G1 X97.067 Y91.492 E6.54011
G1 X97.593 Y91.323 E6.57465
G1 X98.086 Y91.196 E6.60642
G1 X98.863 Y91.054 E6.65580
G1 X99.477 Y90.991 E6.69440
G1 X100.597 Y90.984 E6.76441 F3600.000
G1 X101.105 Y91.027 E6.79622
G1 X101.609 Y91.098 E6.82803
G1 X102.528 Y91.304 E6.88691
G1 X103.076 Y91.477 E6.92281
G1 X103.549 Y91.657 E6.95449
G1 X104.013 Y91.865 E6.98627
G1 X104.784 Y92.284 E7.04110
G1 X105.301 Y92.622 E7.07969
G1 X105.724 Y92.940 E7.11275
G1 X106.112 Y93.268 E7.14452
G1 X106.692 Y93.836 E7.19526
G1 X107.098 Y94.301 E7.23386
G1 X107.458 Y94.774 E7.27100
G1 X107.739 Y95.196 E7.30269
G1 X107.997 Y95.632 E7.33435
G1 X108.231 Y96.084 E7.36616
G1 X108.602 Y96.975 E7.42650
G1 X108.849 Y97.791 E7.47976
G1 X108.996 Y98.488 E7.52429
G1 X109.097 Y99.308 E7.57594
G1 X109.124 Y99.999 E7.61915
G1 X109.109 Y100.508 E7.65094
G1 X109.040 Y101.229 E7.69623
G1 X108.941 Y101.806 E7.73285
G1 X108.823 Y102.311 E7.76523
G1 X108.643 Y102.907 E7.80416
G1 X108.436 Y103.455 E7.84077
G1 X108.228 Y103.920 E7.87259
G1 X107.810 Y104.691 E7.92741
G1 X107.471 Y105.207 E7.96601
G1 X107.154 Y105.630 E7.99906
G1 X106.826 Y106.018 E8.03084
G1 X106.258 Y106.599 E8.08158
G1 X105.792 Y107.005 E8.12018
G1 X105.319 Y107.364 E8.15731
G1 X104.898 Y107.646 E8.18900
G1 X104.462 Y107.903 E8.22066
G1 X104.009 Y108.137 E8.25248
G1 X103.120 Y108.508 E8.31271
G1 X102.594 Y108.677 E8.34725
G1 X102.103 Y108.804 E8.37893
G1 X101.604 Y108.903 E8.41072
G1 X100.711 Y109.009 E8.46690
G1 X100.094 Y109.030 E8.50550
G1 X99.587 Y109.016 E8.53720
G1 X99.081 Y108.973 E8.56897
G1 X98.257 Y108.842 E8.62107
G1 X97.657 Y108.695 E8.65967
G1 X97.111 Y108.523 E8.69545
G1 X96.638 Y108.343 E8.72713
G1 X96.174 Y108.135 E8.75891
G1 X95.403 Y107.716 E8.81373
G1 X94.886 Y107.378 E8.85233
G1 X94.463 Y107.060 E8.88539
G1 X94.075 Y106.732 E8.91716
G1 X93.495 Y106.164 E8.96790
G1 X93.089 Y105.699 E9.00650
G1 X92.729 Y105.226 E9.04364
G1 X92.448 Y104.804 E9.07533
G1 X92.190 Y104.368 E9.10698
G1 X91.957 Y103.916 E9.13880
G1 X91.585 Y103.026 E9.19906
G1 X91.402 Y102.450 E9.23681
G1 X91.253 Y101.832 E9.27655
G1 X90.165 Y102.137 F7800.000
G1 X89.727 Y102.137 E9.30392 F900.000
G1 X89.727 Y101.631 E9.33557
G1 X90.071 Y101.601 E9.35719
G1 X90.154 Y102.078 E9.38746
G1 X89.931 Y102.766 F7800.000
G1 X89.099 Y102.766 E9.43947 F3600.000
G1 X89.099 Y98.151 E9.72788
G1 X89.731 Y98.151 E9.76743
G1 X89.990 Y97.175 E9.83051
G1 X90.192 Y96.534 E9.87254
G1 X90.401 Y95.985 E9.90924
G1 X90.642 Y95.448 E9.94602
G1 X91.128 Y94.553 E10.00968
G1 X91.524 Y93.949 E10.05484
